svg/600/sharp/4g_mobiledata_badge-fill.svg

<svg xmlns="http://www.w3.org/2000/svg" width="48" height="48" viewBox="0 -960 960 960"><path d="M523.217-280h271.131v-233.13h-98.609v66.782h27.173v93.347H596.218v-253.998h198.13V-680H523.217v400Zm-198.087 0h72.436v-116.999h68.043V-470h-68.043v-210H325.13v210h-87.042v-210h-73.001v283.001H325.13V-280ZM25.869-105.869v-748.827h908.827v748.827H25.869Z"/></svg>

<svg xmlns="http://www.w3.org/2000/svg" width="48" height="48" viewBox="0 -960 960 960"><path d="M523.22-280h271.13v-233.13h-98.61v66.78h27.17V-353H596.22v-254h198.13v-73H523.22v400Zm-198.09 0h72.44v-117h68.04v-73h-68.04v-210h-72.44v210h-87.04v-210h-73v283h160.04v117ZM25.87-105.87V-854.7H934.7v748.83H25.87Z"/></svg>
